X: 87
M: 6/8
L: 1/8
K: C
|:\
|:\
g2g gfe | a2b c'3 | gag gfe | a2b c'ge |\
gag gfe | aba abc' | gaf efd | c2d ecA :|
|:\
cBc e<gz | ded f<az | cdc e2f | e2f ecA |\
cdc e<gz | f<az e<gz | a<c'z e<gz | c2d ecA H:|

